X: 1
T: Garrett Barry's
R: jig
Z: id:hn-jig-38 (Henrik Norbeck)
M: 6/8
K: Dmix
   A | DEF ~G3 | AGE c2A | dcA d2e | fed cAG | ~F3 GFG | AGA cde | dcA GEA | ~D3 D2 :|
|: d | dcA d2e | fed efe | dcA c2d | egc edc | dcA d2e | fed efe | dcA GEA | ~D3 D2 :|
